X:1
T:Villanella a Quatro modell
T:Villanella a Quatro modell
%%score [ 1 2 3 4 ]
L:1/8
Q:1/4=96
M:4/4
K:F
V:1 alto nm="Canto" snm="C"
V:2 alto nm="Alto" snm="A"
V:3 alto nm="Tenore" snm="T"
V:4 perc nm="Basso" snm="B"
K:none
V:1
 c4 c2 B2 A2 G2 ||[M:3/2][K:treble] c4 c2 B2 A2 G2 |[M:6/4] F4 F2 F4 A2 | B4 A2 :| F2 F2 F2 | %5
w: Gran te^p' è sta- to|1.Gran temp' è sta- to|c'ho de- si- de-|ra- to|D'ha- ver' un|
w: |2.Ne por- te- ria al|mio brac- cio le-|ga- to,|In- tor- no|
w: |3.De pass' in pas- so|sa- ria\_a- do- man-|da- to.|Di qua- le|
w: |4.Di- ria son d'u- na|man- do- la fio-|ri- ta,|Che sem- pre|
 F4 G2 G4 G2 |[M:3/2] ^F2 G4 F2 G2 G2 |[M:2/2] G2 G2 G2 G2 | F2 c2 B2 B2 | A4 =B2 d2 | %10
w: lac- cio de si|tuoi ca- pel- li, Ch'an-|dass' a tut- te|l'hor bas- cian- do|quel- li, Ch'an-|
w: fatt' a mo- do|di pe- zel- li, *||||
w: don- na son Ques-|ti ca- pel- li, *||||
w: nel mio cor ten-|go scol- pi- ta, Che-|mi puo dar' e|tog- lie- re la|vi- ta, Che|
 d2 d2 e2 e2 |[M:3/2] c2 A2 G2 G4 F2 | G16 |] %13
w: dass' a Tut- te|l'hor bas- cian- do quel-|li.|
w: |||
w: |||
w: mi puo dar' e|tog- lie- re la vi-|ta.|
V:2
 A4 A2 B2 c2 B2 ||[M:3/2][K:treble] A4 A2 B2 c2 B2 |[M:6/4] A4 A2 A4 c2- | c2 B2 c2 :| c2 c2 c2 | %5
w: Gran te^p' è sta- to|1.Gran temp' è sta- to|c'ho de- si- de-|* ra- to|D'ha- ver' un|
w: |2.Ne por- te- ria al|mio brac- cio le-|* ga- to,|In- tor- no|
w: |3.De pass' in pas- so|sa- ria\_a- do- man-|* da- to.|Di qua- le|
w: |4.Di- ria son d'u- na|man- do- la fio-|* ri- ta,|Che sem- pre|
 d4 d2 d4 d2 |[M:3/2] d2 c2 d4 d2 =B2 |[M:2/2] =B2 B2 c2 c2 | A2 A2 d2 d2 | d4 d2 G2 | %10
w: lac- cio de si|tuoi ca- pel- li, Ch'an-|dass' a tut- te|l'hor bas- cian- do|quel- li, Ch'an-|
w: fatt' a mo- do|di pe- zel- li, *||||
w: don- na son Ques-|ti ca- pel- li, *||||
w: nel mio cor ten-|go scol- pi- ta, Che-|mi puo dar' e|tog- lie- re la|vi- ta, Che|
 G2 G2 G2 G2 |[M:3/2] F2 c2 B2 B2 A4 | =B16 |] %13
w: dass' a Tut- te|l'hor bas- cian- do quel-|li.|
w: |||
w: |||
w: mi puo dar' e|tog- lie- re la vi-|ta.|
V:3
 F4 F2 G2 A2 B2 ||[M:3/2][K:treble] F4 F2 G2 A2 B2 |[M:6/4] c4 c2 c4 c2 | d4 c2 :| A2 A2 A2 | %5
w: Gran te^p' è sta- to|1.Gran temp' è sta- to|c'ho de- si- de-|ra- to|D'ha- ver' un|
w: |2.Ne por- te- ria al|mio brac- cio le-|ga- to,|In- tor- no|
w: |3.De pass' in pas- so|sa- ria\_a- do- man-|da- to.|Di qua- le|
w: |4.Di- ria son d'u- na|man- do- la fio-|ri- ta,|Che sem- pre|
 B4 B2 B4 B2 |[M:3/2] A2 G2 A4 B2 d2 |[M:2/2] d2 d2 _e2 e2 | c2 A2 G2 G2- | G2 F2 G2 B2 | %10
w: lac- cio de si|tuoi ca- pel- li, Ch'an-|dass' a tut- te|l'hor bas- cian- do|* quel- li, Ch'an-|
w: fatt' a mo- do|di pe- zel- li, *||||
w: don- na son Ques-|ti ca- pel- li, *||||
w: nel mio cor ten-|go scol- pi- ta, Che-|mi puo dar' e|tog- lie- re la|* vi- ta, Che|
 B2 B2 c2 c2 |[M:3/2] A2 A2 d2 d2 d4 | d16 |] %13
w: dass' a Tut- te|l'hor bas- cian- do quel-|li.|
w: |||
w: |||
w: mi puo dar' e|tog- lie- re la vi-|ta.|
V:4
 z12 ||[M:3/2][K:bass-8] z12 |[M:6/4] z12 | z4 F2- :| F2 F2 F2 | B4 B2 G4 G2 | %6
w: ||||D'ha- ver' un|lac- cio de si|
w: ||||In- tor- no|fatt' a mo- do|
w: ||||Di qua- le|don- na son Ques-|
w: ||||Che sem- pre|nel mio cor ten-|
[M:3/2] d2 e2 d4 G2 G2 |[M:2/2] G2 G2 c2 c2 | F2 F2 G2 G2 | D4 G2 G2 | G2 G2 c2 c2 | %11
w: tuoi ca- pel- li, Ch'an-|dass' a tut- te|l'hor bas- cian- do|quel- li, Ch'an-|dass' a Tut- te|
w: di pe- zel- li, *|||||
w: ti ca- pel- li, *|||||
w: go scol- pi- ta, Che-|mi puo dar' e|tog- lie- re la|vi- ta, Che|mi puo dar' e|
[M:3/2] F2 F2 G2 G2 D4 | G16 |] %13
w: l'hor bas- cian- do quel-|li.|
w: ||
w: ||
w: tog- lie- re la vi-|ta.|

